static/assets/images/networks/harmony.svg

<svg xmlns="http://www.w3.org/2000/svg" fill="none" viewBox="0 0 512 512"><path fill="#000" d="M512 256a256 256 0 0 1-74.981 181.019 255.997 255.997 0 0 1-362.038 0A256 256 0 1 1 512 256"/><path fill="url(#paint0_linear_34_8)" d="M347.185 95.232a69.56 69.56 0 0 0-49.149 20.279 69.5 69.5 0 0 0-20.453 49.059v76.879c-7.168.484-14.497.788-22.095.788s-14.892.305-22.095.735V164.57a69.55 69.55 0 0 0-20.774-48.471A69.62 69.62 0 0 0 163.8 96.115a69.62 69.62 0 0 0-48.819 19.984 69.56 69.56 0 0 0-20.773 48.471v183.743a69.56 69.56 0 0 0 20.773 48.471 69.61 69.61 0 0 0 48.819 19.984c18.266 0 35.8-7.177 48.819-19.984a69.55 69.55 0 0 0 20.774-48.471v-76.879c7.168-.483 14.497-.788 22.095-.788s14.892-.304 22.095-.734v78.401a69.55 69.55 0 0 0 20.774 48.471 69.61 69.61 0 0 0 48.819 19.984c18.266 0 35.8-7.177 48.819-19.984a69.56 69.56 0 0 0 20.773-48.471V164.57a69.5 69.5 0 0 0-20.446-49.053 69.56 69.56 0 0 0-49.137-20.285m-183.394 28.409a41.06 41.06 0 0 1 29.004 11.975 41.03 41.03 0 0 1 12.069 28.954v81.411a234.2 234.2 0 0 0-59.136 16.712 107.5 107.5 0 0 0-22.938 13.685V164.57a41.03 41.03 0 0 1 12.044-28.929 41.06 41.06 0 0 1 28.957-12m41.073 224.672a41.04 41.04 0 0 1-12.03 29.03 41.08 41.08 0 0 1-29.043 12.025 41.08 41.08 0 0 1-29.042-12.025 41.04 41.04 0 0 1-12.03-29.03v-18.431c0-16.282 12.902-31.705 34.532-41.306a202.6 202.6 0 0 1 47.613-13.918zm142.321 40.93a41.07 41.07 0 0 1-29.004-11.975 41.03 41.03 0 0 1-12.069-28.955v-81.411a234.2 234.2 0 0 0 59.136-16.712 107.5 107.5 0 0 0 22.938-13.685v111.808a41.03 41.03 0 0 1-12.044 28.929 41.06 41.06 0 0 1-28.957 12.001m6.54-165.043a202.6 202.6 0 0 1-47.613 13.918V164.57a41.04 41.04 0 0 1 12.03-29.03 41.083 41.083 0 0 1 58.085 0 41.04 41.04 0 0 1 12.03 29.03v18.432c0 16.21-12.902 31.633-34.532 41.198"/><defs><linearGradient id="paint0_linear_34_8" x1="114.637" x2="394.377" y1="392.813" y2="112.187" gradientUnits="userSpaceOnUse"><stop stop-color="#00AEE9"/><stop offset="1" stop-color="#69FABD"/></linearGradient></defs></svg>

<svg width="512" height="512" viewBox="0 0 512 512" fill="none" xmlns="http://www.w3.org/2000/svg">
<path d="M512 256C512 323.895 485.029 389.01 437.019 437.019C389.01 485.029 323.895 512 256 512C188.105 512 122.99 485.029 74.9807 437.019C26.9714 389.01 0 323.895 0 256C0 188.105 26.9714 122.99 74.9807 74.9807C122.99 26.9714 188.105 0 256 0C323.895 0 389.01 26.9714 437.019 74.9807C485.029 122.99 512 188.105 512 256Z" fill="black"/>
<path d="M347.185 95.232C328.761 95.2177 311.085 102.511 298.036 115.511C284.986 128.511 277.631 146.155 277.583 164.57V241.449C270.415 241.933 263.086 242.237 255.488 242.237C247.89 242.237 240.596 242.542 233.393 242.972V164.57C233.1 146.314 225.639 128.906 212.619 116.099C199.6 103.293 182.066 96.1154 163.8 96.1154C145.534 96.1154 128 103.293 114.981 116.099C101.962 128.906 94.5011 146.314 94.208 164.57V348.313C94.5011 366.569 101.962 383.978 114.981 396.784C128 409.591 145.534 416.768 163.8 416.768C182.066 416.768 199.6 409.591 212.619 396.784C225.639 383.978 233.1 366.569 233.393 348.313V271.434C240.561 270.951 247.89 270.646 255.488 270.646C263.086 270.646 270.38 270.342 277.583 269.912V348.313C277.876 366.569 285.337 383.978 298.357 396.784C311.376 409.591 328.91 416.768 347.176 416.768C365.442 416.768 382.976 409.591 395.995 396.784C409.014 383.978 416.475 366.569 416.768 348.313V164.57C416.721 146.158 409.367 128.516 396.322 115.517C383.277 102.518 365.605 95.2225 347.185 95.232ZM163.791 123.641C174.664 123.636 185.095 127.943 192.795 135.616C200.495 143.289 204.836 153.702 204.864 164.57V245.981C184.503 248.93 164.62 254.549 145.728 262.693C137.543 266.284 129.837 270.881 122.79 276.378V164.57C122.819 153.714 127.149 143.312 134.834 135.641C142.519 127.97 152.931 123.655 163.791 123.641ZM204.864 348.313C204.864 359.202 200.537 369.644 192.834 377.343C185.132 385.043 174.685 389.368 163.791 389.368C152.898 389.368 142.451 385.043 134.749 377.343C127.046 369.644 122.719 359.202 122.719 348.313V329.882C122.719 313.6 135.621 298.177 157.251 288.576C172.491 282.004 188.482 277.33 204.864 274.658V348.313ZM347.185 389.243C336.312 389.247 325.881 384.941 318.181 377.268C310.481 369.594 306.14 359.181 306.112 348.313V266.902C326.473 263.953 346.356 258.334 365.248 250.19C373.433 246.6 381.139 242.002 388.186 236.505V348.313C388.157 359.169 383.827 369.571 376.142 377.242C368.458 384.913 358.045 389.229 347.185 389.243ZM353.725 224.2C338.485 230.772 322.494 235.446 306.112 238.118V164.57C306.112 153.682 310.439 143.239 318.142 135.54C325.845 127.841 336.292 123.515 347.185 123.515C358.078 123.515 368.525 127.841 376.227 135.54C383.93 143.239 388.257 153.682 388.257 164.57V183.002C388.257 199.212 375.355 214.635 353.725 224.2Z" fill="url(#paint0_linear_34_8)"/>
<defs>
<linearGradient id="paint0_linear_34_8" x1="114.637" y1="392.813" x2="394.377" y2="112.187" gradientUnits="userSpaceOnUse">
<stop stop-color="#00AEE9"/>
<stop offset="1" stop-color="#69FABD"/>
</linearGradient>
</defs>
</svg>
